icons/desktop/16/svg/barbell-16.svg

<svg width="16" height="16" viewBox="0 0 16 16" fill="none" xmlns="http://www.w3.org/2000/svg">
<path fill-rule="evenodd" clip-rule="evenodd" d="M4.41113 4C5.10508 4.00006 5.72101 4.48725 5.875 5.1582C6.06849 6.00991 6.18695 6.87856 6.23047 7.75H9.76953C9.81305 6.87859 9.93151 6.01011 10.125 5.15918C10.279 4.48722 10.8949 4.00006 11.5889 4H12.5479C13.6419 4 14.5746 4.78233 14.7666 5.86133C14.863 6.40293 14.9263 6.95127 14.9629 7.5H15C15.552 7.5 16 7.948 16 8.5C16 9.052 15.552 9.5 15 9.5H14.9629C14.9259 10.0553 14.8618 10.6103 14.7637 11.1582C14.5726 12.2251 13.6408 13 12.5469 13H11.5879C10.881 13 10.2781 12.5171 10.1221 11.8252C9.93041 10.9786 9.81287 10.1155 9.76953 9.25H6.23047C6.18713 10.1156 6.06959 10.9788 5.87793 11.8262C5.72187 12.516 5.119 13 4.41211 13H3.45312C2.35921 13 1.42843 12.2261 1.23633 11.1582C1.13824 10.6103 1.07406 10.0553 1.03711 9.5H1C0.448 9.5 0 9.052 0 8.5C0 7.948 0.448 7.5 1 7.5H1.03711C1.0737 6.95127 1.13703 6.40293 1.2334 5.86133C1.4244 4.78233 2.35815 4 3.45215 4H4.41113ZM3.45215 5.5C3.08615 5.5 2.77396 5.76205 2.70996 6.12305C2.56997 6.90803 2.5 7.70802 2.5 8.5C2.5 9.29884 2.57095 10.1037 2.71289 10.8945C2.77489 11.2395 3.09312 11.5 3.45312 11.5H4.41406C4.63806 10.513 4.75 9.505 4.75 8.5C4.75 7.49508 4.63708 6.47814 4.41211 5.49121L3.45215 5.5ZM11.5889 5.5C11.3629 6.47799 11.25 7.49001 11.25 8.5C11.25 9.51 11.362 10.5131 11.585 11.4951L11.5879 11.5H12.5469C12.9069 11.5 13.2261 11.2385 13.2871 10.8945C13.4291 10.1047 13.5 9.29884 13.5 8.5C13.5 7.70802 13.43 6.90803 13.29 6.12305C13.226 5.76205 12.9139 5.5 12.5479 5.5H11.5889Z" fill="black"/>
</svg>

<!-- This Source Code Form is subject to the terms of the Mozilla Public
   - License, v. 2.0. If a copy of the MPL was not distributed with this
   - file, You can obtain one at http://mozilla.org/MPL/2.0/. -->
<svg xmlns="http://www.w3.org/2000/svg" width="16" height="16" fill="context-fill" fill-opacity="context-fill-opacity" viewBox="0 0 16 16">
    <path fill-rule="evenodd" d="M4.411 4c.694 0 1.31.487 1.464 1.158.193.852.312 1.72.355 2.592h3.54c.043-.871.162-1.74.355-2.59A1.51 1.51 0 0 1 11.589 4h.959c1.094 0 2.027.782 2.219 1.861q.143.814.196 1.639H15a1 1 0 0 1 0 2h-.037q-.054.834-.2 1.658A2.24 2.24 0 0 1 12.548 13h-.96c-.706 0-1.309-.483-1.465-1.175-.192-.846-.31-1.71-.352-2.575H6.23c-.043.866-.16 1.729-.352 2.576A1.5 1.5 0 0 1 4.412 13h-.959a2.24 2.24 0 0 1-2.217-1.842A15 15 0 0 1 1.037 9.5H1a1 1 0 0 1 0-2h.037q.054-.825.196-1.639A2.25 2.25 0 0 1 3.453 4zm-.959 1.5a.75.75 0 0 0-.742.623 13.6 13.6 0 0 0 .003 4.772c.062.345.38.605.74.605h.961a13.6 13.6 0 0 0-.002-6.009zm8.137 0a13.514 13.514 0 0 0-.004 5.995l.003.005h.959c.36 0 .68-.261.74-.605a13.6 13.6 0 0 0 .003-4.772.75.75 0 0 0-.742-.623z" clip-rule="evenodd" />
</svg>
